dist/img/svg/warning.svg

<svg width="16" height="16" viewBox="0 0 16 16" fill="none" xmlns="http://www.w3.org/2000/svg">
<path d="M8.49935 11C8.49935 10.7239 8.27549 10.5 7.99935 10.5C7.72321 10.5 7.49935 10.7239 7.49935 11H8.49935ZM7.49935 11.0264C7.49935 11.3025 7.72321 11.5264 7.99935 11.5264C8.27549 11.5264 8.49935 11.3025 8.49935 11.0264H7.49935ZM8.5 4.50009L8.50009 4.00009L7.50009 3.99991L7.5 4.49991L8.5 4.50009ZM7.49935 8.70055C7.49935 8.97669 7.72321 9.20055 7.99935 9.20055C8.27549 9.20055 8.49935 8.97669 8.49935 8.70055H7.49935ZM13.5 8C13.5 11.0376 11.0376 13.5 8 13.5V14.5C11.5899 14.5 14.5 11.5899 14.5 8H13.5ZM8 13.5C4.96243 13.5 2.5 11.0376 2.5 8H1.5C1.5 11.5899 4.41015 14.5 8 14.5V13.5ZM2.5 8C2.5 4.96243 4.96243 2.5 8 2.5V1.5C4.41015 1.5 1.5 4.41015 1.5 8H2.5ZM8 2.5C11.0376 2.5 13.5 4.96243 13.5 8H14.5C14.5 4.41015 11.5899 1.5 8 1.5V2.5ZM7.49935 11V11.0264H8.49935V11H7.49935ZM8 4.5C7.5 4.49991 7.5 4.49992 7.5 4.49995C7.5 4.49998 7.5 4.50002 7.5 4.50008C7.5 4.50019 7.5 4.50035 7.5 4.50057C7.5 4.50101 7.5 4.50167 7.5 4.50255C7.5 4.5043 7.5 4.50691 7.5 4.51036C7.5 4.51726 7.5 4.52751 7.49999 4.5409C7.49999 4.56768 7.49998 4.60704 7.49997 4.65732C7.49995 4.75789 7.49993 4.9022 7.4999 5.07712C7.49984 5.42696 7.49976 5.89927 7.49967 6.38917C7.49951 7.36894 7.49935 8.41914 7.49935 8.70055H8.49935C8.49935 8.41924 8.49951 7.36916 8.49967 6.38934C8.49976 5.89944 8.49984 5.42713 8.4999 5.07729C8.49993 4.90237 8.49995 4.75807 8.49997 4.6575C8.49998 4.60722 8.49999 4.56786 8.49999 4.54108C8.5 4.52769 8.5 4.51744 8.5 4.51054C8.5 4.50709 8.5 4.50448 8.5 4.50273C8.5 4.50185 8.5 4.50119 8.5 4.50075C8.5 4.50053 8.5 4.50037 8.5 4.50026C8.5 4.5002 8.5 4.50016 8.5 4.50013C8.5 4.5001 8.5 4.50009 8 4.5Z" fill="currentColor"/>
</svg>

<svg width="16" height="16" viewBox="0 0 16 16" fill="none" xmlns="http://www.w3.org/2000/svg"><path d="M8.5 11a.5.5 0 00-1 0h1zm-1 .026a.5.5 0 001 0h-1zm1-6.526V4h-1v.5h1zm-1 4.2a.5.5 0 001 0h-1zm6-.7A5.5 5.5 0 018 13.5v1A6.5 6.5 0 0014.5 8h-1zM8 13.5A5.5 5.5 0 012.5 8h-1A6.5 6.5 0 008 14.5v-1zM2.5 8A5.5 5.5 0 018 2.5v-1A6.5 6.5 0 001.5 8h1zM8 2.5A5.5 5.5 0 0113.5 8h1A6.5 6.5 0 008 1.5v1zM7.5 11v.026h1V11h-1zM8 4.5h-.5v4.201h1V4.5H8z" fill="currentColor"/></svg>
